Mindful/img/counters-image/14workers.svg

<svg width="49" height="48" viewBox="0 0 49 48" fill="none" xmlns="http://www.w3.org/2000/svg">
<g clip-path="url(#clip0)">
<g clip-path="url(#clip1)">
<path d="M24.8406 22.8023C29.1448 22.8023 32.4925 19.3069 32.4925 15.0172C32.4925 10.7274 28.9854 7.39093 24.6812 7.39093C20.377 7.39093 17.0293 10.8863 17.0293 15.0172C17.0293 19.3069 20.5364 22.8023 24.8406 22.8023ZM24.6812 10.5685C24.8406 10.5685 24.8406 10.5685 24.6812 10.5685C27.2318 10.5685 29.3042 12.634 29.3042 15.176C29.3042 17.7181 27.2318 19.6247 24.6812 19.6247C22.1306 19.6247 20.2176 17.5592 20.2176 15.176C20.2176 12.634 22.29 10.5685 24.6812 10.5685Z" fill="#FF7761"/>
<path d="M48.4339 21.8487C45.405 19.1477 41.4196 17.7178 37.2749 17.8767H35.9995C35.6807 19.1477 35.2025 20.2599 34.5648 21.2132C35.5213 21.0543 36.3184 21.0543 37.2749 21.0543C40.3037 20.8954 43.3326 21.8487 45.7238 23.5964V35.0357H48.9121V22.3253L48.4339 21.8487Z" fill="#FF7761"/>
<path d="M33.6084 7.70814C34.4055 5.80158 36.6373 4.8483 38.7097 5.6427C40.6226 6.4371 41.5791 8.66141 40.782 10.7269C40.1444 12.1568 38.7097 13.1101 37.2749 13.1101C36.9561 13.1101 36.4779 13.1101 36.159 12.9512C36.3184 13.7456 36.3184 14.54 36.3184 15.1755V16.1288C36.6373 16.1288 36.9561 16.2876 37.2749 16.2876C41.2603 16.2876 44.4486 13.1101 44.4486 9.29693C44.4486 5.32494 41.2603 2.14734 37.4343 2.14734C34.8837 2.14734 32.6519 3.41838 31.3766 5.6427C32.1737 6.11934 32.9707 6.75486 33.6084 7.70814Z" fill="#FF7761"/>
<path d="M15.4351 21.3722C14.7975 20.4189 14.3192 19.3068 14.0004 18.0357H12.7251C8.58031 17.8768 4.59495 19.3068 1.56607 21.8488L1.08783 22.3255V35.0359H4.27612V23.5965C6.82675 21.8488 9.69621 20.8956 12.7251 21.0544C13.6816 21.0544 14.6381 21.2133 15.4351 21.3722Z" fill="#FF7761"/>
<path d="M12.7251 16.1294C13.044 16.1294 13.3628 16.1294 13.6816 15.9705V15.0172C13.6816 14.2228 13.6816 13.4284 13.841 12.7929C13.5222 12.9518 13.044 12.9518 12.7251 12.9518C10.6527 12.9518 8.89917 11.2041 8.89917 9.13868C8.89917 7.07324 10.6527 5.32556 12.7251 5.32556C14.3193 5.32556 15.754 6.27884 16.3917 7.70876C17.0293 6.91436 17.9858 6.11996 18.7829 5.48444C16.7105 2.14796 12.4063 1.0358 9.05859 3.10124C5.71088 5.16668 4.59498 9.45644 6.66737 12.7929C7.94269 14.8584 10.1745 16.1294 12.7251 16.1294Z" fill="#FF7761"/>
<path d="M37.9126 31.3816L37.5938 30.905C34.4055 27.4096 29.9419 25.3442 25.1595 25.5031C20.377 25.3442 15.754 27.4096 12.5657 30.905L12.2469 31.3816V43.4565C12.2469 44.8864 13.3628 46.1574 14.9569 46.1574H35.362C36.7967 46.1574 38.072 44.8864 38.072 43.4565V31.3816H37.9126ZM34.7243 42.9798H15.4352V32.4938C17.9858 29.9517 21.4929 28.6807 25.1595 28.6807C28.6666 28.5218 32.1737 29.9517 34.7243 32.4938V42.9798Z" fill="#FF7761"/>
</g>
</g>
<defs>
<clipPath id="clip0">
<rect width="48" height="48" fill="white" transform="translate(0.5)"/>
</clipPath>
<clipPath id="clip1">
<rect width="48" height="44.2105" fill="white" transform="translate(1 2)"/>
</clipPath>
</defs>
</svg>

<svg width="49" height="48" fill="none" xmlns="http://www.w3.org/2000/svg"><g clip-path="url(#clip0)"><g clip-path="url(#clip1)" fill="#FF7761"><path d="M24.84 22.802c4.305 0 7.652-3.495 7.652-7.785s-3.507-7.626-7.81-7.626c-4.305 0-7.653 3.495-7.653 7.626 0 4.29 3.507 7.785 7.812 7.785zm-.159-12.233c.16 0 .16 0 0 0 2.55 0 4.623 2.065 4.623 4.607 0 2.542-2.072 4.449-4.623 4.449a4.448 4.448 0 01-4.463-4.449c0-2.542 2.072-4.607 4.463-4.607zm23.753 11.28c-3.029-2.701-7.014-4.131-11.16-3.972H36c-.318 1.27-.797 2.383-1.434 3.336.956-.159 1.753-.159 2.71-.159 3.029-.159 6.058.795 8.449 2.542v11.44h3.188v-12.71l-.478-.477zM33.608 7.708c.798-1.906 3.03-2.86 5.102-2.065 1.913.794 2.87 3.018 2.072 5.084-.638 1.43-2.072 2.383-3.507 2.383-.319 0-.797 0-1.116-.159.16.795.16 1.589.16 2.224v.954c.318 0 .637.159.956.159 3.985 0 7.174-3.178 7.174-6.991 0-3.972-3.189-7.15-7.015-7.15-2.55 0-4.782 1.271-6.057 3.496.797.476 1.594 1.112 2.231 2.065zM15.435 21.372c-.638-.953-1.116-2.065-1.435-3.336h-1.275a16.438 16.438 0 00-11.159 3.813l-.478.477v12.71h3.188v-11.44c2.55-1.747 5.42-2.7 8.45-2.542.956 0 1.912.16 2.71.318zm-2.71-5.242c.319 0 .638 0 .957-.16v-.953c0-.794 0-1.589.159-2.224-.319.159-.797.159-1.116.159-2.072 0-3.826-1.748-3.826-3.813 0-2.066 1.754-3.813 3.826-3.813 1.594 0 3.029.953 3.667 2.383.637-.795 1.594-1.589 2.39-2.225-2.072-3.336-6.376-4.448-9.723-2.383-3.348 2.066-4.464 6.355-2.392 9.692 1.276 2.065 3.508 3.336 6.058 3.336zm25.188 15.252l-.32-.477c-3.188-3.495-7.651-5.56-12.434-5.402-4.782-.159-9.405 1.907-12.593 5.402l-.32.477v12.074c0 1.43 1.117 2.701 2.71 2.701h20.406c1.435 0 2.71-1.27 2.71-2.7V31.381h-.16zM34.724 42.98H15.435V32.494c2.55-2.542 6.058-3.813 9.725-3.813 3.507-.16 7.014 1.27 9.564 3.813V42.98z"/></g></g><defs><clipPath id="clip0"><path fill="#fff" transform="translate(.5)" d="M0 0h48v48H0z"/></clipPath><clipPath id="clip1"><path fill="#fff" transform="translate(1 2)" d="M0 0h48v44.211H0z"/></clipPath></defs></svg>
